X:1
T:8 Lieder und Gesänge, Op.57
T:Von waldbekränzter Höhe
T:8 Lieder und Gesänge, Op.57
T:Johannes Brahms
T:1. Von waldbekränzter Höhe
T:Georg Friedrich Daumer
T:Creative Commons copyright waiver (CC0 1.0 Universal)
T:Creative Commons copyright waiver (CC0 1.0 Universal)
T:Creative Commons copyright waiver (CC0 1.0 Universal)
T:Creative Commons copyright waiver (CC0 1.0 Universal)
T:Creative Commons copyright waiver (CC0 1.0 Universal)
T:Creative Commons copyright waiver (CC0 1.0 Universal)
C:Johannes Brahms
Z:Georg Friedrich Daumer
Z:Creative Commons copyright waiver (CC0 1.0 Universal)
L:1/8
M:4/4
K:G
V:1 treble nm="Singstimme\nVoice"
V:1
 z8 | z4 z2 D2 | B3 B A2 G2 | (d3 B) A2 G2 | c3 c e3 e | g2 d2 g2 f2 | (f2 e2) (d2 ^c2) | %7
w: |Von|wald\- be- kränz- ten|Hö- * he werf|ich den hei- ssen|Blick der lie\- be\-|feuch\- * ten _|
 e4 d2 ^d2 | e3 e (=fe) (dc) | (B4 A2) B2 | c4 z2 ^c2 | (e2 d) ^A (^c2 B) G | F6 E2 | D4 z4 | z8 | %15
w: Se\- he zur|Flur, die dich * um\- *|grünt, _ zu\-|rück, zur|Flur, _ die dich _ um\-|grünt, zu\-|rück.||
 z8 | z8 | z2 d2 (d4- | d2 c2) (=f2 _e2) | (d2 _B2) (A2 B2) | (_e6 A2) | _B2 z2 z2 d2 | %22
w: ||Ich senk|_ _ ihn _|auf _ die _|Quel\-- *|le, ver\-|
 d3 d c2 _B2 | =f3 d c2 _B2 | _B3 B c4 | _B2 z2 z2 c2 | d3 d d2 c2 | =f3 d c2 z2 | z2 z _d d2 c2 | %29
w: möcht ich, ach, mit|ihr zu flie\- ssen|ei\- ne Wel\-|le, zu\-|rück, o Freund, zu|dir, zu dir,|zu- rück, o|
 =f6 ^f2 | (g4- g_e) (cA) | _B2 z2 z4 | z8 | z8 | z8 | z2 d2 d4- | d2 d4 (d_e/d/ | _e8) | %38
w: Freund, zu|dir, _ _ zu _|dir!||||Ich richt|_ ihn auf _ _|Zü-|
 (^d2 ^c2) ^f2 =e2 | (^d2 =B2) (^A2 B2) | e6 ^A2 | B2 z2 z2 ^d2 | ^d3 d f2 d2 | e4 B2 ^c2 | %44
w: * * ge der|Wol- * ken _|ü- ber|mir, ach,|flög ich ih\- re|Flü- ge, zu\-|
 ^d3 d d2 ^c2 | f3 ^d ^c2 z2 | z2 z =d d2 ^c2 | f4 z2 ^c2 | f4 z2 ^c2 | f6 z2 | z8 | z8 | %52
w: rück, o Freund, zu|dir, zu dir,|zu- rück, o|Freund, zu|dir, zu|dir!|||
 z4 z2 D2 | B3 B A2 G2 | (d3 B) A2 G2 | c3 c e3 e | g2 d2 g2 f2 | (f2 e2) (d2 ^c2) | (e4 d2) ^d2 | %59
w: Wie|wollt ich dich um\-|stri\- * cken, mein|Heil und mei- ne|Pein, mein Heil und|mei- * ne _|Pein, _ mit|
 e3 e (=fe) (dc) | B4 A2 d2 | ^d2 e2 (ag) (fe) | e3 d A2 c2 | (B2 g4) d2 | (^c2 a4) e2 | %65
w: Lip\- pen und * mit _|Bli\- cken, mit|Bu\- sen, Herz * und _|See- le dein, mit|Bu\- * sen,|Herz * und|
 (f4- fe) (=cA) | G2 z2 z4 | !fermata!z8 |] %68
w: See- * * le _|dein!||

